public/seo.svg

<svg width="26" height="25" viewBox="0 0 26 25" fill="none" xmlns="http://www.w3.org/2000/svg">
<path d="M18.8859 15.9205H17.7312L17.322 15.5326C19.0759 13.521 19.982 10.7766 19.4851 7.85985C18.7982 3.86543 15.4074 0.675647 11.315 0.187121C5.13259 -0.560036 -0.0705714 4.55512 0.68944 10.6329C1.18637 14.6561 4.43104 17.9896 8.49418 18.6649C11.4611 19.1534 14.2527 18.2626 16.2989 16.5384L16.6935 16.9407V18.0758L22.9052 24.1824C23.5044 24.7715 24.4837 24.7715 25.0829 24.1824C25.6821 23.5933 25.6821 22.6306 25.0829 22.0415L18.8859 15.9205ZM10.1165 15.9205C6.47722 15.9205 3.53948 13.0325 3.53948 9.45474C3.53948 5.87701 6.47722 2.98896 10.1165 2.98896C13.7558 2.98896 16.6935 5.87701 16.6935 9.45474C16.6935 13.0325 13.7558 15.9205 10.1165 15.9205Z" fill="black"/>
</svg>

<svg width="26" height="25" fill="none" xmlns="http://www.w3.org/2000/svg"><path d="M18.886 15.92H17.73l-.409-.387c1.754-2.012 2.66-4.756 2.163-7.673-.687-3.995-4.078-7.184-8.17-7.673C5.133-.56-.071 4.555.689 10.633c.497 4.023 3.742 7.357 7.805 8.032a9.615 9.615 0 0 0 7.805-2.127l.395.403v1.135l6.211 6.106c.6.59 1.579.59 2.178 0a1.5 1.5 0 0 0 0-2.14l-6.197-6.122Zm-8.77 0c-3.639 0-6.577-2.887-6.577-6.465s2.938-6.466 6.578-6.466c3.639 0 6.576 2.888 6.576 6.466 0 3.578-2.937 6.466-6.577 6.466Z" fill="#000"/></svg>
